!!!OTL: 21. Jch bin ein Preuße.
!!!COM: August Neithardt
!!!ODT: 1832
!!!ARE: Europa, Mitteleuropa, Deutschland, Preussen
!!!SCT: B0021
!!!TXL: @@DE
!!!YEM: Copyright 1995, estate of Helmut Schaffrath.
**kern	**text
*ICvox	*
*Ivox	*
*M4/4	*
*met(c)	*
*clefG2	*
*k[b-e-]	*
*B-:	*
!LO:TX:a:t=Einʒeln.	!
!LO:TX:a:t=Lebhaft.	!
{8f	Jch
8f	bin
8f	ein
=1	=1
4.dd	Preu-
8b-	-ße,
8.a	kennt
16b-	ihr
8cc	mei-
8a	-ne
=2	=2
4b-/	Far-
4f	-ben?
8r}	.
{8f	Die
8g	Fah-
8f	-ne
=3	=3
4.ee-	ſchwebt
16ddL	mir
16ccJ	.
8.b-	weiß
16a	und
8.b-	ſchwarʒ
16dd	vo-
=4	=4
2cc	-ran:
8r}	.
{8cc	daß
8bn	für
8cc	die
=5	=5
4.dd	Frei-
8cc	-heit
8cc	mei-
8b-	-ne
8.a	Vä-
16g	-ter
=6	=6
8gL	ſtar-
8fJ	.
4.f}	-ben,
{8a	das
8g	deu-
8f	-ten,
=7	=7
4.cc	merkt
16aL	es,
16fJ	.
8.c	mei-
16b-	-ne
8a	Far-
8g	-ben
=8	=8
2f	an.
4r}	.
{8fL	Nie
8aJ	.
=9	=9
4.cc	werd
8a	ich
4.b-	bang
8dd	ver-
=10	=10
16cc/L	-ʒa-
16b-	.
16a	.
16gJ	.
4f	-gen
4r}	.
{8fL	wie
8aJ	.
=11	=11
4.cc	je-
8a	-ne
4.b-	will
8dd	ich's
=12	=12
16cc;L	wa-
16ff	.
16een	.
16ffJ	.
4f	-gen.
8r}	.
!LO:TX:a:t=P:encoded only higher voice:problem	!
{8f	Sei's
8f	trü-
8f	-ber
=13	=13
4.b-/	Tag,
8b-/	ſei's
8.dd/	heit-
16cc/	-rer
8b-/	Sonnen-
8cc/	.
=14	=14
2dd/	-ſchein
8r}	.
{8dd/	ich
8dd/	bin
8dd/	ein
=15	=15
8.ff/	Preuße,
16ee-/	.
8dd/	will
8cc/	ein
4dd/	Preuße
4cc/	.
=16	=16
2b-/	ſein!
8r}	.
{8f	Sei's
8f	trü-
8f	-ber
=17	=17
4.b-/	Tag,
8b-/	ſei's
8.dd/	heit-
16cc/	-rer
8b-/	Sonnen-
8cc/	.
=18	=18
2dd/	-ſchein
8r}	.
{8dd/	ich
8dd/	bin
8dd/	ein
=19	=19
8.ff/	Preuße,
16ee-/	.
8dd/	will
8cc/	ein
4dd/	Preuße
4cc/	.
=20	=20
2b-/	ſein!
8r}	.
==	==
!!!AGN: politisch, national, Vaterlands - Lied
!!!GTL: Vaterlandslieder und Heimathgrüße
!!!ONB: ESAC (Essen Associative Code) Database: BOEHME
!!!AMT: simple quadruple
!!!AIN: vox
!!!EED: Helmut Schaffrath
!!!EEV: 1.0
!!@@COMMENT:"Gedicht von Bernhard Thiersch, Gymasiallehrer in Halberstadt 1830. Das Lied wurde
!! dort in der Harmoniegeselschaft zuers am Geburtstage des König Friedr. Wilhelm III. am 3. Aug.
!! 1830 gesungen und zwar nach der Mel.: "Wo Muth und Kraft in deutscher Seele flammen."
!!@@END:
!!Text: Bernhard Thiersch
!!!URL-scan: https://archive.org/details/BoehmeVtLieder1895/page/n41/mode/2up
!!!ENC: Anna Maria Matuszewska
!!!EEV: 2024/13/06
*-	*-
